openmetadata-ui/src/main/resources/ui/src/assets/svg/show-password.svg

<svg width="24" height="16" viewBox="0 0 24 16" fill="none" xmlns="http://www.w3.org/2000/svg">
<path d="M12 15.5C4.14881 15.5 0.256312 8.6555 0.0945 8.36431C-0.0315 8.13763 -0.0315 7.86219 0.0945 7.6355C0.256312 7.3445 4.14881 0.5 12 0.5C19.8512 0.5 23.7437 7.3445 23.9055 7.63569C24.0315 7.86237 24.0315 8.13781 23.9055 8.3645C23.7437 8.6555 19.8512 15.5 12 15.5ZM1.63256 7.99887C2.52469 9.35094 6.02738 14 12 14C17.9916 14 21.4787 9.35469 22.3674 8.00112C21.4753 6.64906 17.9726 2 12 2C6.00844 2 2.52131 6.64531 1.63256 7.99887ZM12 12.5C9.51863 12.5 7.5 10.4814 7.5 8C7.5 5.51862 9.51863 3.5 12 3.5C14.4814 3.5 16.5 5.51862 16.5 8C16.5 10.4814 14.4814 12.5 12 12.5ZM12 5C10.3459 5 9 6.34588 9 8C9 9.65413 10.3459 11 12 11C13.6541 11 15 9.65413 15 8C15 6.34588 13.6541 5 12 5Z" fill="#37352F"/>
</svg>

<svg xmlns="http://www.w3.org/2000/svg" width="24" height="16" fill="none"><path fill="#37352F" d="M12 15.5C4.149 15.5.256 8.655.095 8.364a.75.75 0 0 1 0-.729C.256 7.346 4.149.5 12 .5c7.851 0 11.744 6.845 11.905 7.136a.75.75 0 0 1 0 .728C23.744 8.655 19.852 15.5 12 15.5ZM1.633 7.999C2.525 9.35 6.027 14 12 14c5.992 0 9.479-4.645 10.367-5.999C21.475 6.65 17.973 2 12 2 6.008 2 2.521 6.645 1.633 7.999ZM12 12.5A4.505 4.505 0 0 1 7.5 8c0-2.481 2.019-4.5 4.5-4.5s4.5 2.019 4.5 4.5-2.019 4.5-4.5 4.5ZM12 5c-1.654 0-3 1.346-3 3s1.346 3 3 3 3-1.346 3-3-1.346-3-3-3Z"/></svg>
